X: 26678
T: Midsummer's Night
R: reel
M: 4/4
K: Adorian
|:eBdB ABAG|EG G2 EGDG|eBdB A2 (3Bcd|e2ag egdg|
eBdB A3G|EG G2 EGDA|GEDE GABd|1 eBdB AGBd:|2 eBdB cAFA||
|:G3A BG (3Bcd|g3a baga|bage dG (3Bcd|egdg edBA|
G3A BG (3Bcd|egga baga|bage dG (3Bcd|1 e2ge edBA:|2 e2ge edBd||

